images/all.svg

<svg width="2643" height="1490" xmlns="http://www.w3.org/2000/svg" xml:space="preserve" overflow="hidden"><defs><clipPath id="a"><path d="M2701 601h2643v1490H2701z"/></clipPath></defs><g clip-path="url(#a)" transform="translate(-2701 -601)"><path fill="#FFF" d="M2702 602h2640v1487H2702z"/><path d="M2832.5 1859.56h2459m-2459-123h2459m-2459-124.01h2459m-2459-123h2459m-2459-124.01h2459m-2459-123h2459m-2459-123h2459m-2459-124.007h2459m-2459-123.004h2459M2832.5 748.5h2459M2832.5 1983.5h2459" stroke="#D9D9D9" stroke-width="3.438" stroke-linejoin="round" stroke-miterlimit="10" fill="none"/><path d="m3243 1844 819.13-705.96L4882 1101" stroke="#255E91" stroke-width="10.313" stroke-linecap="round" stroke-linejoin="round" stroke-miterlimit="10" fill="none"/><g stroke="#255E91" stroke-width="3.438" stroke-linejoin="round" stroke-miterlimit="10" fill="#255E91"><path d="M3253.74 1844.92c0 6.07-4.93 11-11 11-6.08 0-11-4.93-11-11 0-6.08 4.92-11 11-11 6.07 0 11 4.92 11 11ZM4073.74 1137.92c0 6.07-4.93 11-11 11-6.08 0-11-4.93-11-11 0-6.08 4.92-11 11-11 6.07 0 11 4.92 11 11ZM4893.74 1100.92c0 6.07-4.93 11-11 11-6.08 0-11-4.93-11-11 0-6.08 4.92-11 11-11 6.07 0 11 4.92 11 11Z"/></g><text fill="#404040" font-family="Calibri,Calibri_MSFontService,sans-serif" font-weight="400" font-size="41" transform="translate(3211.45 1801)">395</text><text fill="#404040" font-family="Calibri,Calibri_MSFontService,sans-serif" font-weight="400" font-size="41" transform="translate(4031.06 1094)">624</text><text fill="#404040" font-family="Calibri,Calibri_MSFontService,sans-serif" font-weight="400" font-size="41" transform="translate(4850.67 1057)">636</text><text fill="#595959" font-family="Calibri,Calibri_MSFontService,sans-serif" font-weight="400" font-size="41" transform="translate(2732.03 1995)">350</text><text fill="#595959" font-family="Calibri,Calibri_MSFontService,sans-serif" font-weight="400" font-size="41" transform="translate(2732.03 1871)">390</text><text fill="#595959" font-family="Calibri,Calibri_MSFontService,sans-serif" font-weight="400" font-size="41" transform="translate(2732.03 1748)">430</text><text fill="#595959" font-family="Calibri,Calibri_MSFontService,sans-serif" font-weight="400" font-size="41" transform="translate(2732.03 1624)">470</text><text fill="#595959" font-family="Calibri,Calibri_MSFontService,sans-serif" font-weight="400" font-size="41" transform="translate(2732.03 1501)">510</text><text fill="#595959" font-family="Calibri,Calibri_MSFontService,sans-serif" font-weight="400" font-size="41" transform="translate(2732.03 1378)">550</text><text fill="#595959" font-family="Calibri,Calibri_MSFontService,sans-serif" font-weight="400" font-size="41" transform="translate(2732.03 1254)">590</text><text fill="#595959" font-family="Calibri,Calibri_MSFontService,sans-serif" font-weight="400" font-size="41" transform="translate(2732.03 1131)">630</text><text fill="#595959" font-family="Calibri,Calibri_MSFontService,sans-serif" font-weight="400" font-size="41" transform="translate(2732.03 1007)">670</text><text fill="#595959" font-family="Calibri,Calibri_MSFontService,sans-serif" font-weight="400" font-size="41" transform="translate(2732.03 884)">710</text><text fill="#595959" font-family="Calibri,Calibri_MSFontService,sans-serif" font-weight="400" font-size="41" transform="translate(2732.03 760)">750</text><text fill="#595959" font-family="Calibri,Calibri_MSFontService,sans-serif" font-weight="400" font-size="41" transform="translate(3201.57 2048)">312a</text><text fill="#595959" font-family="Calibri,Calibri_MSFontService,sans-serif" font-weight="400" font-size="41" transform="translate(4021.18 2048)">403a</text><text fill="#595959" font-family="Calibri,Calibri_MSFontService,sans-serif" font-weight="400" font-size="41" transform="translate(4840.79 2048)">404a</text><text fill="#595959" font-family="DengXian,DengXian_MSFontService,sans-serif" font-weight="400" font-size="64" transform="translate(3861.82 694)">总分折线图</text><path stroke="#D9D9D9" stroke-width="3.438" stroke-linejoin="round" stroke-miterlimit="10" fill="none" d="M2702.5 602.5h2640v1487h-2640z"/></g></svg>

<svg width="2643" height="1490" xmlns="http://www.w3.org/2000/svg" xmlns:xlink="http://www.w3.org/1999/xlink" xml:space="preserve" overflow="hidden"><defs><clipPath id="clip0"><rect x="2701" y="601" width="2643" height="1490"/></clipPath></defs><g clip-path="url(#clip0)" transform="translate(-2701 -601)"><rect x="2702" y="602" width="2640" height="1487" fill="#FFFFFF"/><g><path d="M2832.5 1859.56 5291.5 1859.56M2832.5 1736.56 5291.5 1736.56M2832.5 1612.55 5291.5 1612.55M2832.5 1489.55 5291.5 1489.55M2832.5 1365.54 5291.5 1365.54M2832.5 1242.54 5291.5 1242.54M2832.5 1119.54 5291.5 1119.54M2832.5 995.533 5291.5 995.533M2832.5 872.529 5291.5 872.529M2832.5 748.5 5291.5 748.5" stroke="#D9D9D9" stroke-width="3.4375" stroke-linejoin="round" stroke-miterlimit="10" fill="none"/></g><g><path d="M2832.5 1983.5 5291.5 1983.5" stroke="#D9D9D9" stroke-width="3.4375" stroke-linejoin="round" stroke-miterlimit="10" fill="none" fill-rule="evenodd"/></g><g><path d="M3243 1844 4062.13 1138.04 4882 1101" stroke="#255E91" stroke-width="10.3125" stroke-linecap="round" stroke-linejoin="round" stroke-miterlimit="10" fill="none"/></g><g><path d="M3253.74 1844.92C3253.74 1850.99 3248.81 1855.92 3242.74 1855.92 3236.66 1855.92 3231.74 1850.99 3231.74 1844.92 3231.74 1838.84 3236.66 1833.92 3242.74 1833.92 3248.81 1833.92 3253.74 1838.84 3253.74 1844.92Z" stroke="#255E91" stroke-width="3.4375" stroke-linejoin="round" stroke-miterlimit="10" fill="#255E91"/><path d="M4073.74 1137.92C4073.74 1143.99 4068.81 1148.92 4062.74 1148.92 4056.66 1148.92 4051.74 1143.99 4051.74 1137.92 4051.74 1131.84 4056.66 1126.92 4062.74 1126.92 4068.81 1126.92 4073.74 1131.84 4073.74 1137.92Z" stroke="#255E91" stroke-width="3.4375" stroke-linejoin="round" stroke-miterlimit="10" fill="#255E91"/><path d="M4893.74 1100.92C4893.74 1106.99 4888.81 1111.92 4882.74 1111.92 4876.66 1111.92 4871.74 1106.99 4871.74 1100.92 4871.74 1094.84 4876.66 1089.92 4882.74 1089.92 4888.81 1089.92 4893.74 1094.84 4893.74 1100.92Z" stroke="#255E91" stroke-width="3.4375" stroke-linejoin="round" stroke-miterlimit="10" fill="#255E91"/></g><g><text fill="#404040" font-family="Calibri,Calibri_MSFontService,sans-serif" font-weight="400" font-size="41" transform="matrix(1 0 0 1 3211.45 1801)">395</text></g><g><text fill="#404040" font-family="Calibri,Calibri_MSFontService,sans-serif" font-weight="400" font-size="41" transform="matrix(1 0 0 1 4031.06 1094)">624</text></g><g><text fill="#404040" font-family="Calibri,Calibri_MSFontService,sans-serif" font-weight="400" font-size="41" transform="matrix(1 0 0 1 4850.67 1057)">636</text></g><g><text fill="#595959" font-family="Calibri,Calibri_MSFontService,sans-serif" font-weight="400" font-size="41" transform="matrix(1 0 0 1 2732.03 1995)">350</text></g><g><text fill="#595959" font-family="Calibri,Calibri_MSFontService,sans-serif" font-weight="400" font-size="41" transform="matrix(1 0 0 1 2732.03 1871)">390</text></g><g><text fill="#595959" font-family="Calibri,Calibri_MSFontService,sans-serif" font-weight="400" font-size="41" transform="matrix(1 0 0 1 2732.03 1748)">430</text></g><g><text fill="#595959" font-family="Calibri,Calibri_MSFontService,sans-serif" font-weight="400" font-size="41" transform="matrix(1 0 0 1 2732.03 1624)">470</text></g><g><text fill="#595959" font-family="Calibri,Calibri_MSFontService,sans-serif" font-weight="400" font-size="41" transform="matrix(1 0 0 1 2732.03 1501)">510</text></g><g><text fill="#595959" font-family="Calibri,Calibri_MSFontService,sans-serif" font-weight="400" font-size="41" transform="matrix(1 0 0 1 2732.03 1378)">550</text></g><g><text fill="#595959" font-family="Calibri,Calibri_MSFontService,sans-serif" font-weight="400" font-size="41" transform="matrix(1 0 0 1 2732.03 1254)">590</text></g><g><text fill="#595959" font-family="Calibri,Calibri_MSFontService,sans-serif" font-weight="400" font-size="41" transform="matrix(1 0 0 1 2732.03 1131)">630</text></g><g><text fill="#595959" font-family="Calibri,Calibri_MSFontService,sans-serif" font-weight="400" font-size="41" transform="matrix(1 0 0 1 2732.03 1007)">670</text></g><g><text fill="#595959" font-family="Calibri,Calibri_MSFontService,sans-serif" font-weight="400" font-size="41" transform="matrix(1 0 0 1 2732.03 884)">710</text></g><g><text fill="#595959" font-family="Calibri,Calibri_MSFontService,sans-serif" font-weight="400" font-size="41" transform="matrix(1 0 0 1 2732.03 760)">750</text></g><g><text fill="#595959" font-family="Calibri,Calibri_MSFontService,sans-serif" font-weight="400" font-size="41" transform="matrix(1 0 0 1 3201.57 2048)">312a</text></g><g><text fill="#595959" font-family="Calibri,Calibri_MSFontService,sans-serif" font-weight="400" font-size="41" transform="matrix(1 0 0 1 4021.18 2048)">403a</text></g><g><text fill="#595959" font-family="Calibri,Calibri_MSFontService,sans-serif" font-weight="400" font-size="41" transform="matrix(1 0 0 1 4840.79 2048)">404a</text></g><g><text fill="#595959" font-family="DengXian,DengXian_MSFontService,sans-serif" font-weight="400" font-size="64" transform="matrix(1 0 0 1 3861.82 694)">总分折线图</text></g><rect x="2702.5" y="602.5" width="2640" height="1487" stroke="#D9D9D9" stroke-width="3.4375" stroke-linejoin="round" stroke-miterlimit="10" fill="none"/></g></svg>
